assets/images/ico_tw.svg

<svg width="22" height="18" viewBox="0 0 22 18" fill="none" xmlns="http://www.w3.org/2000/svg">
<path fill-rule="evenodd" clip-rule="evenodd" d="M19.7502 4.48111C19.7588 4.67677 19.7636 4.87402 19.7636 5.07127C19.7636 11.0771 15.2244 18 6.91939 18C4.37014 18 1.99706 17.25 0 15.9599C0.353119 16.002 0.712557 16.0235 1.07674 16.0235C3.19229 16.0235 5.13799 15.2965 6.68318 14.078C4.70825 14.0414 3.04061 12.7275 2.4663 10.9212C2.74121 10.9737 3.02481 11.0031 3.31473 11.0031C3.72631 11.0031 4.12604 10.9491 4.50443 10.8449C2.43944 10.4281 0.883981 8.59158 0.883981 6.3884C0.883981 6.36932 0.883981 6.34943 0.884771 6.33114C1.49305 6.67076 2.18902 6.87597 2.92844 6.89903C1.71819 6.08537 0.92111 4.69347 0.92111 3.11705C0.92111 2.2835 1.14309 1.50245 1.53176 0.831161C3.75712 3.58155 7.08449 5.39022 10.8353 5.58111C10.7579 5.24785 10.7192 4.90186 10.7192 4.54474C10.7192 2.03535 12.7399 0 15.2323 0C16.531 0 17.7025 0.551986 18.5273 1.43485C19.5566 1.23123 20.5204 0.854227 21.3949 0.331669C21.0552 1.39349 20.3418 2.2835 19.4073 2.84663C20.3213 2.73687 21.1934 2.49348 22 2.13159C21.398 3.04149 20.6326 3.84243 19.7502 4.48111Z" fill="white"/>
</svg>

<svg width="22" height="18" fill="none" xmlns="http://www.w3.org/2000/svg"><path fill-rule="evenodd" clip-rule="evenodd" d="M19.75 4.481c.009.196.014.393.014.59C19.764 11.077 15.224 18 6.919 18 4.37 18 1.997 17.25 0 15.96c.353.042.713.063 1.077.063a9.021 9.021 0 0 0 5.606-1.945 4.522 4.522 0 0 1-4.217-3.157 4.52 4.52 0 0 0 2.038-.076 4.538 4.538 0 0 1-3.62-4.457v-.057c.609.34 1.305.545 2.044.568A4.55 4.55 0 0 1 .921 3.117c0-.833.222-1.615.61-2.286a12.789 12.789 0 0 0 9.304 4.75 4.57 4.57 0 0 1-.116-1.036C10.72 2.035 12.74 0 15.232 0c1.299 0 2.47.552 3.295 1.435A8.974 8.974 0 0 0 21.395.332a4.56 4.56 0 0 1-1.988 2.515A8.927 8.927 0 0 0 22 2.132a9.115 9.115 0 0 1-2.25 2.35z" fill="#fff"/></svg>
